X:54
T: IM SACHSENLAND KENN ICH EIN STAEDCHEN
N: F0143
O: Europa, Mitteleuropa, Deutschland
R: Liebes - Lied
M: 6/8
L: 1/16
K: G
D2 | G2G2G2A2F2D2 | G4B2D4
D2 | G2G2G2A2F2D2 | G4B2d4
B2 | A3AA2g2e2^c2 | d4z6
d2 | dcA2A2A2G2A2 | G4B2D4
d2 | dcA2A2A2G2A2 | G4B2d4
d2 | g2g2g2g2f2=f2 | e6z4
e2 | d3ed2c2B2A2 | G6z4

